X:31
T:Spring - La Primavera (RV 269)
C:Vivaldi, A.
M:4/4
L:1/8
Q:1/4=144
K:E
|:E2|E4 E4|E4 EE^GE|A4 A4|A4 AABA|
^GFEF E4|E4 EE^GE|A4 ^G4|A4 A2E2|
B4 B4|B4 BBdB|e4 e4|e4 eefe|
d^cBd B4|B4 BBdB|e4 d4|e4 e2:|

